X:1
T:I will no more come to thee - Morley
T:#
%%score { 1 | 2 } 3 4
L:1/8
Q:1/4=105
M:4/4
K:Bb
V:1 treble nm="Soprano I" snm="S"
V:2 treble 
V:3 treble nm="Alto" snm="A"
V:4 bass nm="Tenor" snm="T"
V:1
 F4 GA B2- | B2"^I will no more come to thee" A2 B2 F2 | G4 F2 B2 | %3
w: I will no more,|* no more come|to thee, come|
 (B2 A2)"^Thomas Morley\n(1557-1603)" B4 |[M:4/4] z2 c2 de f2- | f2 =e2 (f2 c2) | d2 d2 e3 e | %7
w: to * thee,|I will no more|* come to *|thee, that floutst me|
 d2 d2 c4 | d8 | z4 z2 c2 | de f4 =e2 | f2 d2 c4 | B4 z4 | z2 F2 GA B2 | B2 A2 B2 B2 | B3 c A2 B2 | %16
w: when I woo|thee.|I|will no more no|more come to|thee.|I will no more|come to thee, that|floutst me when I|
 A4 B4 | z2 f2 eecc | d2 d2 eecc | d2 c2 c4 | z4 z2 f2 |[M:4/4] eecc d2 A2 | BBcc F2 B2 | %23
w: woo thee.|Still ty hy hy hy|hy, still ty hy hy hy|hy thou criest,|Still|ty hy hy hy hy, still|ty hy hy hy hy, still|
 BBAA B2 G2 | F2 F2 FFGG |[M:4/4] =E2 F2 (F2 E2) | F4 z2 c2 | e3 d B3 c | defe d2 cB | A2 AB c4- | %30
w: ty hy hy hy hy thou|criest, still ty hy hy hy|hy thou cri\- *|est, and|all my love- ly,|love- ly, love- ly rings and my|pins and my gloves|
 c2 B2 (B4- | B4 A4) | B8 | z8 | z4 e4- | e2 dc d2 e2 | f4 e4 | d4 c4- | c4 =B4 | (c4 A4) | G8 | %41
w: * de- ni\-||est,||O|* say a- las, O|say what|moves thee,|* what|moves *|thee,|
 z4 g4- | g4 f4- | f4 e4 | d4 d4- | d4 d4- | d4 f4 | e8- | e4 d4 | c8 | d2 d3 d d2 | =e2 f3 _e d2 | %52
w: to|* grieve|* him|so, to|* grieve|* him|so|* that|loves|thee? Leave a- las,|ah leave a- las,|
 c2 B2 c4 | c8 | z4 z2 g2 | f2 d2 f4 | c3 d e4- | e4 d4 | c8 | d2 f2 d2 B2 | c4 B (cde) | f4 B4 | %62
w: leave tor- ment-|ing,|ah|leave, ah leave,|leave a- las|* tor-|ment-|ing, and give my|burn- ing, my * *|burn- ing,|
 z4 z2 e2 | d2 B2 c4- | c2 B4 A2 | B2 B3 B =B2 | c2 c4 (_BA | G2 F2) G4 | A4 z2 c2 | e3 d B2 c2 | %70
w: yet,|yet some small|* re- lent-|ing, Leave a- las|ah leave tor\- *|* * ment-|ing, ah|leave a- las, a-|
 defe d2 cB | A2 AB c4- | c2 B2 (B4- | B2 AG A4) | B8 | z4 z2 B2 | A2 F2 !>!G4 | F2 B4 A2 | B4 G4 | %79
w: las a- while a- las, leave a-|while, leave a- las|* tor- ment\-||ing,|and|give my burn-|ing, yet some|small re-|
 F8- | F8 | !fermata!F8 |] %82
w: lent\-||ing.|
V:2
 z8 | c4 de f2- | f2 =e2 f2 d2 | c4 B4 |[M:4/4] z4 z2 F2 | GA B2 B2 A2 | B2 B2 B3 c | %7
w: |I will no more|* no more come|to thee,|I|will no more come to|thee, that floutst me|
 A2 B2 (B2 A2) | B4 z2 F2 | GA B4 A2 | B2 F2 G4 | F2 B2 (B2 A2) | B4 z2 c2 | de f4 =e2 | %14
w: when I woo *|thee. I|will no more, no|more come to|thee, come to *|thee. I|will no more come|
 (f2 c2) d2 d2 | e3 e d2 d2 | c4 d2 f2 | ddBB c2 AA | BF G2 G2 AA | BB G2 A2 f2 | eecc dd d2 | %21
w: to * thee, that|floutst me when I|woo thee. Still|ty hy hy hy hy, ty hy|hy hy thou criest, ty hy|hy hy thou criest, still|ty hy hy hy hy hy thou|
[M:4/4] (c2 A2) B2 z2 | z4 z2 f2 | eecc d2 =e2 | (f3 e) d2 dd |[M:4/4] c2 c2 c4 | c8 | z4 z2 g2 | %28
w: cri\- * est,|still|ty hy hy hy hy thou|cri\- * est, ty hy|hy thou cri-|est,|and|
 f2 d2 f2 f2 | c2 cd e4- | e4 d4 | c8 | d8 | z8 | z4 c4- | c2 BA B2 c2 | d4 c4 | (B4 c4) | d8 | %39
w: all my rings, my|pins and my gloves|* de-|ni-|est,||O|* say a- las, what|moves, what|moves *|thee,|
 z4 c4 | =B4 (c4- | c4 =B4) | c8 | d4 c4- | c4 B4 | A8 | =B4 d4- | d4 (c4- | c2 B2 _B4- | B4 A4) | %50
w: to|grieve him||so|that loves|* that|loves|thee, that|* loves|||
 B2 B3 B =B2 | c2 c4 (_BA | G2 F2) G4 | A4 z2 c2 | e3 d B3 c | defe d2 cB | A2 AB c4- | %57
w: thee? Leave a- las|then, leave tor\- *|* * ment-|ing, ah|leave a- las a-|las, a- while a- las, leave a-|while, leave a- las|
 c2 B2 (B4- | B2 AG A4) | B8 | z4 z2 B2 | A2 F2 G4 | F2 B4 A2 | B4 G4 | F8 | F2 d3 d d2 | %66
w: * tor- ment\-||ing,|and|give my burn-|ing, yet some|small re-|lent-|ing. Leave a- las,|
 =e2 f3 _e d2 | c2 B2 c4 | c8 | z4 z2 g2 | f2 d2 f4 | c3 d e4- | e4 d4 | c8 | d2 f2 d2 B2 | %75
w: ah leave a- las|this tor- ment-|ing,|ah|leave, ah leave,|leave a- las|* tor-|ment-|ing, and give my|
 c4 B (cde) | f4 B4 | z4 z2 e2 | d2 B2 c4- | c2 B2 (B4- | B2 AG A4) | !fermata!B8 |] %82
w: burn- ing, my * *|burn- ing,|yet,|yet some small|* re- lent\-||ing.|
V:3
 z8 | z8 | z8 | z4 z2 B,2 |[M:4/4] DE !>!F4 D2 | (EDCB, C4) | B,2 F2 G3 G | F2 F2 F4 | %8
w: |||I|will no more come|to * * * *|thee, that floutst me|when I woo|
 F2 B,2 D(E F2) | E2 D2 F4 | B,2 D2 C4 | F,8 | z2 B,2 DE F2- | F2 D2 (EDCB, | C4) B,2 F2 | %15
w: thee. I will no *|more come to|thee, come to|thee,|I will no more|* come to * * *|* thee, that|
 G3 G F2 F2 | F4 F4- | F4 z2 F2 | DDB,B, C2 F2 | (F2 =E2) F2 F2 | GGAF B2 B,B, | %21
w: floutst me when I|woo thee.|* Still|ty hy hy hy hy thou|cri\- * est, still|ty hy hy hy hy, ty hy|
[M:4/4] E2 F2 B,2 F2 | EECC D2 B,2 | EEFF F2 c2 | AAAA B4- |[M:4/4] B2 A2 G4 | A2 F2 _A3 A | %27
w: hy thou criest, still|ty hy hy hy hy, still|ty hy hy hy hy, still|ty hy hy hy hy|* thou cri-|est, and all my|
 G2 E2 G3 A | B2 B2 F4 | z2 C2 G4 | F8 | F8 | F4 D4- | D2 CB, C2 D2 | E6 F2 | G4 D4- | D4 (G4- | %37
w: love- ly, love- ly|rings and pins,|and gloves|de-|ni-|est. O|* say a- las, I|say a-|las, what|* moves|
 G2 F2 E4) | D4 G4- | G4 F4- | F4 E4 | D4 D4 | C8 | z4 G4 | ^F4 (G4- | G4 ^F4) | G2 (D3 E =F2) | %47
w: |thee, to|* grieve,|* to|grieve him|so,|to|grieve him||so that * *|
 G4 G4 | F8- | F8 | F2 F3 F G2 | G2 AG F2 GF | =E2 F4 !>!E2 | F2 F2 _A3 A | G2 E2 G3 !courtesy!=A | %55
w: loves, that|loves||thee? Leave a- las|then, leave a- las, leave a-|las tor- ment-|ing, ah leave a-|las, ah leave a-|
 B4 F4 | z2 C2 G4 | F8 | F8 | F8 | z2 F2 D2 B,2 | (C3 D E2) B,2- | B,(C D2) E4 | F4 z2 E2 | %64
w: las then,|ah leave|tor-|ment-|ing,|and give my|burn\- * * ing,|* my * burn-|ing, some|
 D2 B,2 C4 | D2 F3 F G2 | G2 AG F2 !>!GF | =E2 F4 E2 | F2 F2 _A3 A | G2 E2 G3 =A | B4 F4 | %71
w: small re- lent-|ing. Leave a- las|then, leave a- las, leave a-|las tor- ment-|ing, ah leave a-|las, ah leave a-|las then,|
 z2 C2 G4 | F8 | F8 | F8 | z2 F2 D2 B,2 | (C3 D E2) B,2- | B,(C D2) E4 | F4 z2 E2 | D4 B,4 | C8 | %81
w: ah leave|tor-|ment-|ing,|and give my|burn\- * * ing,|* my * burn-|ing some|small re-|lent-|
 !fermata!B,8 |] %82
w: ing.|
V:4
 z8 | z8 | z8 | F,4 G,A, B,2- |[M:4/4] B,2 A,2 B,4 | G,4 F,4 | B,,2 B,,2 E,3 C, | D,2 B,,2 F,4 | %8
w: |||I will no more|* no more|come to|thee, that floutst me|when I woo|
 B,,8 | z8 | z8 | z4 z2 F,2 | G,A, B,4 A,2 | B,4 G,4 | F,4 B,,2 B,,2 | E,3 C, D,2 B,,2 | %16
w: thee.|||I|will no more, no|more come|to thee, that|floutst me when I|
 F,4 B,,4- | B,,4 z4 | B,2 !>!G,G, E,E, F,2 | B,,2 C,2 F,4 | z8 |[M:4/4] z4 z2 F,2 | %22
w: woo thee.||Still ty hy hy hy hy|thou cri- est,||still|
 G,G,A,F, B,2 D2 | CCF,F, B,2 CC | D4 B,4 |[M:4/4] C8 | F,4 z2 F,2 | E,2 C,2 E,3 A, | %28
w: ty hy hy hy hy, still|ty hy hy hy hy, ty hy|hy thou|cri-|est, and|all my love- ly|
 D,2 B,,3 (C,D,E,) | F,4 C,2 C,2 | A,,4 B,,4 | F,8 | B,,4 B,4- | B,2 A,G, A,2 B,2 | C6 B,A, | G,8 | %36
w: rings and my * *|pins and my|loves de-|ni-|est, O|* say a- las, then|O say a-|las|
 D,4 (E,2 F,2) | G,8 | z4 G,4 | =E,4 F,4 | G,8- | G,8 | A,8 | (=B,4 C4) | D8- | D4 D,4 | G,4 D,4 | %47
w: what moves *|thee,|to|grieve him|so||that|loves *|thee,|* to|grieve him|
 E,4 E,4 | F,8- | F,8 | B,,2 B,3 B, G,2 | C2 F,4 B,2 | C2 D2 C4 | F,4 z2 F,2 | E,2 C,2 E,4 | %55
w: so that|loves||thee? Leave a- las,|leave then, ah|leave- tor- ment-|ing, ah|leave, ah leave|
 D,2 B,,3 C,D,E, | F,4 C,4 | A,,4 B,,4 | F,8 | B,,4 z2 B,2 | A,2 F,2 G,4 | F,4 z2 E,2 | %62
w: then, leave a- while a-|las, ah|leave tor-|ment-|ing, and|give my burn-|ing, yet,|
 D,2 B,,2 C,4 | (B,,4 E,4) | F,8 | B,,2 D3 B, G,2 | C2 F,4 B,2 | C2 D2 C4 | F,4 z2 F,2 | %69
w: yet some small-|re\- *|lent-|ing. Leave a- las|leave then, ah|leave tor- ment-|ing, ah|
 E,2 C,2 E,4 | D,2 B,,3 C,D,E, | F,4 C,4 | A,,4 B,,4 | F,8 | B,,4 z2 B,2 | A,2 F,2 G,4 | %76
w: leave, ah leave|then, leave a- while a-|las, ah|leave tor-|ment-|ing, and|give my burn-|
 F,4 z2 E,2 | D,2 B,,2 C,4 | (B,,4 E,4) | F,8- | F,8 | !fermata!B,,8 |] %82
w: ing. yet,|yet some small|re\- *|lent\-||ing.|

